FINK
CUT[AUF SCHWAERMT UND TRINKT]
REG[Europa, Mitteleuropa, Deutschland]
KEY[F0507  08  D 4/4]
MEL[-5-3-4  -5_.-53_.1  -7_1_0
    1-71  2_.-7-6-5-6-7  -5__0
    -5-2-3  -4_.-4-4-6-5-4  -4-3-3_0
    -3-2-3  -4_.-4-4-6-5-4  -4_-3_0
    -5-5-5  3_.12_.-7  1__0
    1-7-6  -5_.-5-5_-6-7  1__0
    -5-5-5  3_.12_.-7  1__0
    1-7-6  -5_.-5-5_-6-7  1__0 //] >>
FCT[Studenten -, Trink - Lied]
